X: 34
T:Dan Breen's
M:2/2
L:1/8
S:Brendan Ring, _Across the Waters_(compilation)
R:reel
Z:ABC by Rob Greenway
K:ADor
e2dB ABAG|EAAG ABcd|e2dB ABAG|EGGF GABd:|!
|:e2^ce edbd|ea~a2 ea~a2|e2^ce edbd|dGde gefd:||
